components/icons/Silos.svg

<svg width="21" height="22" viewBox="0 0 21 22" fill="none" xmlns="http://www.w3.org/2000/svg">
<path fill-rule="evenodd" clip-rule="evenodd" d="M9.23307 0.59169C9.7983 0.467565 10.3837 0.467565 10.949 0.59169C11.5914 0.732763 12.1747 1.08327 12.9482 1.54809C12.99 1.57316 13.0322 1.59856 13.0751 1.62428L17.366 4.19883C17.4064 4.22308 17.4463 4.24698 17.4857 4.27058C18.219 4.7099 18.7721 5.04133 19.1858 5.51181C19.55 5.92596 19.8246 6.41094 19.9923 6.93629C20.1829 7.53308 20.1825 8.17793 20.182 9.03272C20.182 9.07863 20.1819 9.12514 20.1819 9.17228L20.1819 12.8278C20.1819 12.8749 20.182 12.9214 20.182 12.9673C20.1825 13.8221 20.1829 14.467 19.9923 15.0638C19.8246 15.5891 19.55 16.0741 19.1858 16.4882C18.7721 16.9587 18.219 17.2901 17.4857 17.7295C17.4463 17.7531 17.4064 17.777 17.366 17.8012L13.0751 20.3758C13.0322 20.4015 12.99 20.4269 12.9482 20.452C12.1747 20.9168 11.5914 21.2673 10.949 21.4084C10.7769 21.4462 10.6029 21.4724 10.4282 21.4872C10.3228 21.5249 10.2093 21.5455 10.091 21.5455C9.97272 21.5455 9.85921 21.5249 9.75388 21.4872C9.57916 21.4724 9.40518 21.4462 9.23307 21.4084C8.59066 21.2673 8.00735 20.9168 7.23382 20.452C7.19209 20.4269 7.14982 20.4015 7.10695 20.3758L2.81604 17.8012C2.7756 17.777 2.7357 17.7531 2.69632 17.7295C1.96307 17.2901 1.40991 16.9587 0.996226 16.4882C0.632061 16.0741 0.357469 15.5891 0.189699 15.0638C-0.000885278 14.467 -0.000480557 13.8221 5.57659e-05 12.9673C8.46146e-05 12.9214 0.000113821 12.8749 0.000113821 12.8278L0.000113821 9.17228C0.000113821 9.12514 8.46146e-05 9.07862 5.57659e-05 9.03271C-0.000480557 8.17793 -0.000885278 7.53307 0.189699 6.93629C0.357469 6.41094 0.632061 5.92596 0.996226 5.51181C1.40991 5.04134 1.96308 4.70991 2.69633 4.27059C2.73571 4.24699 2.77561 4.22308 2.81604 4.19883L7.10695 1.62428C7.14982 1.59856 7.19209 1.57316 7.23381 1.54809C8.00735 1.08327 8.59065 0.732764 9.23307 0.59169ZM11.091 19.2174C11.3118 19.0983 11.6091 18.923 12.0461 18.6608L16.337 16.0862C17.2435 15.5424 17.5025 15.3738 17.6839 15.1676C17.866 14.9605 18.0033 14.718 18.0871 14.4553C18.1707 14.1937 18.1819 13.8849 18.1819 12.8278L18.1819 9.17228C18.1819 8.32803 18.1748 7.96106 18.1293 7.71423L11.091 12.0154L11.091 19.2174ZM10.091 10.2826L16.791 6.18817C16.6608 6.10858 16.5108 6.0181 16.337 5.91381L12.0461 3.33927C11.088 2.76438 10.8015 2.60695 10.52 2.54514C10.2374 2.48308 9.94466 2.48308 9.66205 2.54514C9.38058 2.60695 9.09409 2.76438 8.13594 3.33926L3.84503 5.91381C3.67123 6.01809 3.52122 6.10858 3.39101 6.18817L10.091 10.2826ZM2.05273 7.71423C2.00728 7.96106 2.00011 8.32803 2.00011 9.17228L2.00011 12.8278C2.00011 13.8849 2.01135 14.1937 2.09491 14.4553C2.17879 14.718 2.31609 14.9605 2.49817 15.1676C2.67954 15.3738 2.93857 15.5424 3.84503 16.0862L8.13594 18.6608C8.57293 18.923 8.87021 19.0983 9.09102 19.2174L9.09102 12.0154L2.05273 7.71423Z" fill="currentColor"/>
</svg>

<svg fill="none" xmlns="http://www.w3.org/2000/svg" viewBox="0 0 21 22"><path fill-rule="evenodd" clip-rule="evenodd" d="M9.233.592a4 4 0 0 1 1.716 0c.642.14 1.226.491 2 .956l.126.076L17.366 4.2l.12.072c.733.439 1.286.77 1.7 1.24.364.415.639.9.806 1.425.19.597.19 1.242.19 2.097v3.935c0 .854 0 1.499-.19 2.096a3.998 3.998 0 0 1-.806 1.424c-.414.47-.967.802-1.7 1.242l-.12.071-4.29 2.575-.128.076c-.773.465-1.357.815-1.999.956a4.003 4.003 0 0 1-.52.08 1 1 0 0 1-.675 0 4.003 4.003 0 0 1-.52-.08c-.643-.14-1.227-.491-2-.956l-.127-.076L2.816 17.8l-.12-.071c-.733-.44-1.286-.771-1.7-1.242a4 4 0 0 1-.806-1.424C0 14.467 0 13.822 0 12.967V9.032c0-.854 0-1.499.19-2.096a4 4 0 0 1 .806-1.424c.414-.47.967-.802 1.7-1.241l.12-.072 4.291-2.575.127-.076c.773-.465 1.357-.815 2-.956Zm1.858 18.625c.22-.119.518-.294.955-.556l4.291-2.575c.907-.544 1.166-.712 1.347-.918.182-.207.32-.45.403-.713.084-.261.095-.57.095-1.627V9.172c0-.844-.007-1.21-.053-1.458l-7.038 4.301v7.202Zm-1-8.934 6.7-4.095c-.13-.08-.28-.17-.454-.274l-4.29-2.575c-.959-.575-1.245-.732-1.527-.794a2 2 0 0 0-.858 0c-.281.062-.568.22-1.526.794L3.845 5.914a66.05 66.05 0 0 0-.454.274l6.7 4.095ZM2.053 7.714C2.007 7.961 2 8.328 2 9.172v3.656c0 1.057.011 1.366.095 1.627a2 2 0 0 0 .403.713c.182.206.44.374 1.347.918l4.29 2.575c.438.262.735.437.956.556v-7.202l-7.038-4.3Z" fill="currentColor"/></svg>
